!!!!SEGMENT: pl-kk--kk-i-382--094-003_richling-msza-na-3-glosy-tollite-portas.krn
!!!id: 18xx:1607
!!!COM: Richling
!!!OTL: Msza na 3 głosy – Tollite portas
!!!PDT:
!!!SMS-siglum: PL-Kk
!!!SMS-shelfmark: Kk.I.382
!!!NIFC-rismID: 1001142972
!!!URL-scan: http://repozytorium.nifc.pl/skany/pl-kk-nut--i-382
!!!ONB-nifc: S/T1 od 0062, A/B1 od 0206, B2 od 0279. Części Mszy: 1. Kyrie, 2. Et in terra, 3. Tollite portas, 4. Patrem, 5. Sanctus, 6. Benedictus, 7. Agnus Dei, 8. Dona
!!!SMS-variant:
!!!SMS-altvar:
**kern	**text	**kern	**text	**kern	**text
*part3	*part3	*part2	*part2	*part1	*part1
*staff3	*staff3	*staff2	*staff2	*staff1	*staff1
*I"Basso II	*	*I"Alto vel Basso I	*	*I"Soprano vel Tenore I.	*
*I'B. II	*	*I'A.	*	*I'S. vel T. I	*
*clefF4	*	*clefF4	*	*clefG2	*
*	*	*	*	*ITrd8c12	*
*k[f#c#]	*	*k[f#c#]	*	*k[f#c#]	*
*D:	*	*D:	*	*D:	*
*M4/4	*	*M4/4	*	*M4/4	*
*met(c)	*	*met(c)	*	*met(c)	*
=1	=1	=1	=1	=1	=1
!LO:TX:b:i:t=Graduale	!	!LO:TX:a:i:t=Andante	!	!LO:TX:a:i:t=Graduale	!
4D\	Tol-	4F#\	Tol-	4A/	Tol-
8D\	-li-	8F#\	-li-	8A/	-li-
8D\	-te	8F#\	-te	8A/	-te
4D\	por-	4Fn\	por-	4B/	por-
4D\	-tas	4F\	-tas	8A/L	-tas
.	.	.	.	8G#X/J	.
=2	=2	=2	=2	=2	=2
4.C#/	prin-	4.E\	prin-	4.A/	prin-
8C#/	-ci-	8G\	-ci-	8e\	-ci-
4C#/	-pes	4F#\	-pes	4d\	-pes
4r	.	4r	.	4r	.
=3	=3	=3	=3	=3	=3
4E\	ves-	4G\	ves-	4B\	ves-
8E\	-tras	8G\	-tra	8B\	-tras
8E\	et	8G\	et	8B\	et
4AA/	e-	(8E\L	e-	4c#\	e-
.	.	8A\J)	.	.	.
4AA/	-le-	(8G\L	-le-	8B\L	-le-
.	.	8E\J)	.	8c#\J	.
!LO:LB:g=original	!	!LO:LB:g=original	!	!LO:LB:g=original	!
=4	=4	=4	=4	=4	=4
4.D\	-va-	4.F#\	-va-	4.d\	-va-
8D\	-mi-	8E#X\	-mi-	16c#\LL	-mi-
.	.	.	.	16B\JJ	.
4D\	-ni	4F#\	-ni	4A\	-ni
4r	.	4r	.	4r	.
=5	=5	=5	=5	=5	=5
*^	*	*	*	*	*
!LO:TX:t=P:problem:cue notes	!	!	!	!	!	!
!LO:TX:a:t=  I Ten	!	!	!	!	!	!
4AA/	4c#/	por-	4En\	por-	4c#\	por-
4AA/	4c#/	-te	4E#X\	-te	4c#\	-t(ae)
4D/	4B/	(ae)-	4F#\	(ae)-	4B\	(ae)-
4AA#X/	4c#/	-ter-	4F#\	-ter-	4c#\	-ter-
*v	*v	*	*	*	*	*
=6	=6	=6	=6	=6	=6
*	*	*2\right	*	*	*
!	!	!LO:TX:t=P:problem:2\right:global	!	!	!
2BB/	-na-	2F#\	-na-	(4.d\	-na-
.	.	.	.	8c#\	.
4D\	-les	4F#\	-les	8B\L)	-les
.	.	.	.	8f#\	.
4D\	et	8F#\L	et	8e\	.
.	.	8B\J	.	8d\J	et
=7	=7	=7	=7	=7	=7
4E\	in-	4A\	in-	4c#\	in-
4E\	-tro-	8G#X\L	-tro-	8d\L	-tro-
.	.	8A\J	.	8c#\J	.
4D\	-i-	4E\	-i-	4B\	-i-
8C#/	-bit	8E\	-bit	8A/	-bit
8BB/	Rex	8E\	Rex	8G#X/	Rex
!LO:LB:g=original	!	!LO:LB:g=original	!	!LO:LB:g=original	!
=8	=8	=8	=8	=8	=8
!	!	!	!	!LO:TX:t=P:problem:ołówkiem wykreślona chorągiewka	!
!	!	!	!	!LO:N:vis=8.	!
4.D/	glo-	4.E\	glo-	4.B/	glo-
8C#/	-ri-	8E\	-ri-	8A/	-ri-
4C#/	-(ae).	4E\	-(ae)	4A/	-(ae)
4r	.	4r	.	4r	.
=9||	=9||	=9||	=9||	=9||	=9||
*M3/4	*	*M3/4	*	*M3/4	*
*2\right	*	*	*	*	*
!LO:TX:t=P:problem:2\right:global	!	!	!	!	!
2D\	A-	2F#\	A-	2A/	A-
8D\	-ve	8Fn\	-ve	8B/L	-ve
8D\	Ma-	8F\	Ma-	16A/L	.
.	.	.	.	16G#X/JJ	.
=10	=10	=10	=10	=10	=10
4C#/	-ri-	(8E\L	-rij-	4.A/	Ma-
.	.	8G\J)	.	.	.
4D/	-ja	4F#\	-a	.	.
.	.	.	.	8F#/L	-ri-
4r	.	4r	.	8d/	.
.	.	.	.	8c#/J	-a
=11	=11	=11	=11	=11	=11
*	*	*	*	*2\right	*
!	!	!	!	!LO:TX:t=P:problem:2\right:global	!
2E\	gra-	2G\	gra-	2B\	gra-
8AA/	-ti-	8E\	-ti-	8c#\L	-ti-
8AA/	-a	8G\	-a	16B\L	-a
.	.	.	.	16c#\JJ	.
!LO:LB:g=original	!	!LO:LB:g=original	!	!	!
=12	=12	=12	=12	=12	=12
4D\	ple-	4F#\	ple-	(4.d\	ple-
4D\	-na.	4F#\	-na	.	.
.	.	.	.	8c#\L	.
4r	.	4r	.	8B\)	.
.	.	.	.	8A\J	-na
!	!	!	!	!LO:LB:g=original	!
=13	=13	=13	=13	=13	=13
2BB/	Do-	2D\	Do-	4.G#X/	Do-
.	.	.	.	8B/	.
8C#/	-mi-	8E\	-mi-	8A/	-mi-
8AA/	-nus	8E\	-nus	8c#/	-nus
=14	=14	=14	=14	=14	=14
4GG#X/	te-	4E\	te-	8B\L	te-
.	.	.	.	8d\J	.
4AA/	-cum,	4E\	-cum.	4c#\	-cum
4r	.	4r	.	4r	.
=15	=15	=15	=15	=15	=15
8F#\	Be-	8A\	Be-	8c#\	be-
8E\	-ne-	8A\	-ne-	8c\	-ne-
4D#X\	-dic-	4A\	-dic-	4B\	-dic-
(8E\L	-ta	4G#X\	-ta	4B\	-ta
8Dn\J)	.	.	.	.	.
!LO:LB:g=original	!	!	!	!	!
=16	=16	=16	=16	=16	=16
4.C#/	tu	4.A\	tu	4.e\	tu
8C#/	in	8A\	in	8c#\	in
8D/	mu-	8F#\	mu-	8A\	mu-
8D/	-li-	8F#\	-li-	8B\	-li-
!	!	!LO:LB:g=original	!	!LO:LB:g=original	!
=17	=17	=17	=17	=17	=17
4.C#/	-e-	4.E\	-e-	4.A/	-e-
8AA/	-ri-	8E#X\	-ri-	8A/	-ri-
8D/	-bus	8F#\	-bus,	8A/	-bus
8D/	et	8F#\	et	8d\	et,
=18	=18	=18	=18	=18	=18
4.E\	Be-	4.G\	be-	4.c#\	be-
8D\	-ne-	8F#\	-ne-	8B\	-ne-
8C#\	-dic-	8E\	-dic-	8A\	-di-
8D\	-tus	8F#\	-tus	8B\	-ctus
=19	=19	=19	=19	=19	=19
4.C#/	fruc-	4.E\	fruc-	4.A/	fru-
8BB/	-tus	8D\	-tus	8G#X/	-ctus
8AA/	ven-	8C#\	ven-	8A/L	ven-
8AA#X/	-tris	8C#\	-tris	8G/J	.
!LO:LB:g=original	!	!	!	!	!
=20	=20	=20	=20	=20	=20
8BB/	tu-	8D\	tu-	8F#/	-tris
8BB/	-i	8D\	-i	8F#/	tu-
4BB/	Je-	4F#\	Je-	4d\	-i
!	!	!	!	!LO:TX:t=P:problem:odtąd przez dwa następne takty ołówkowe poprawki	!
4AA/	-sus,	4G\	-sus	8c#\L	Je-
.	.	.	.	8B\J	-sus
!	!	!LO:LB:g=original	!	!LO:LB:g=original	!
=21	=21	=21	=21	=21	=21
2D\	San-	2F#\	San-	2A/	San-
8D\	-cta	8Fn\	-cta	8B/L	-cta
8D\	Ma-	8F\	Ma-	16A/L	.
.	.	.	.	16G#X/JJ	.
=22	=22	=22	=22	=22	=22
4C#/	-ri-	8E\L	-rij-	4.A/	Ma-
.	.	8G\J	.	.	.
4D/	-ja.	4F#X\	-a	.	.
!	!	!	!	!LO:TX:t=P:problem:mixed beam	!
.	.	.	.	8F#/L	-ri-
4r	.	4r	.	(8d\	.
.	.	.	.	8c#\J)	-a
=23	=23	=23	=23	=23	=23
2E\	O-	(4.G\	O-	(4.B\	o-
.	.	8B\)	.	8g\)	.
8AA/	-ra	8A\	-ra	8f#\	-ra
8AA/	pro	8G\	pro	8e\	pro
=24	=24	=24	=24	=24	=24
4D\	no-	4G\	no-	4e\	no-
4D\	-bis.	4F#\	-bis.	4d\	-bis.
4r	.	4r	.	4r;	.
==	==	==	==	==	==
*-	*-	*-	*-	*-	*-
!!!system-decoration: [(s1,s2,s3)]
!!!ENC: Mateusz Solarz
!!!END: 2021-03-08
!!!EED: Leszek Kubiak
!!!EST: 2021-03-26
